X: 35606
T: Saddle The Pony
R: jig
M: 6/8
K: Gmajor
|:D|GBA G2 B|def gdB|GBA G2 B|AFD AFD|
GBA G2 B|def gfg|ege dBA|BAF G2:|
|:B|efe edB|def gfg|ege edB|dBA ABd|
efe edB|def gfg|e/f/ge dBA|BAF G2:|

